X: 7847
T: Coming Over The Hills
R: reel
M: 4/4
K: Dmixolydian
BdcA d2cA|DG~G2 ABcA|BdcA G2GF|DF~F2 ABcA:|
Add^c d2dc|Ad~d2 efge|fde^c d2dc|AGFG AB=cB|
Add^c d2dc|Ad~d2 efge|faef d2 d^c|AGFG AB=cA||

